X:1
T:A l'envers sur lict
T:Nicole Regnes
T:Source : Second livre contenant 31 chansons nouvelles à 4 parties---Paris---P.Attaignant---1535. Editor : André Vierendeels (12/01/18). Notes : Original clefs : C1, C2, C3, F3 Original note values have been halved Editorial accidentals above the stave
T:A l'envers sur lict
T:©
T:©
T:©
T:©
T:©
T:©
T:©
C:Nicole Regnes
Z:©
%%score [ 1 2 [ 3 4 ] ]
L:1/8
Q:1/4=120
M:2/2
K:F
V:1 treble nm="Soprano" snm="S"
V:2 treble nm="Alto" snm="A"
V:3 treble-8 nm="Tenor 1" snm="T 1"
V:4 treble-8 nm="Tenor 2" snm="T 2"
V:1
 z8 | z8 | z8 | z2 d4 d2 | c2 B2 A2 G2 | F3 E E2 E2 | D4 z2 A2 | AB c2 A2 B2- | BA G4 F2 | G4 z4 | %10
w: |||A l'en-|vers sur lict ou|cou- * chet- *|te, vo-|lun- tiers vous tien- droys|_ seu- let- *|te,|
 z2 d2 dd G2 | d2 c2 B2 A2 | z4 z2 d2 | ddGd cBAc | cBAG FE D2 | z8 | z2 d2 ddGd | cBAd c2 B2 | %18
w: de- puis le soir|ius- qu'au ma- tin,|de-|uis le soir ius- qu'au ma- tin, à|vous ma- ni- er le te- tin,||de- puis le soir ius-|qu'au ma- tin, à vous ma-|
 A2 d2 d2 c2 | d4 z4 | z2 d2 c2 B2 | A2 d2 d2 c2 | d4 z2 A2 | A2 A2 d2 d2 | c2 d3 c B2- | %25
w: ni- er le te-|tin,|à vous ma-|ni- er le te-|tin, des-|or- mais n'es- tes|si jeu- * net-|
 B2 A2 B4 | z2 B2 B2 B2 | d2 c2 A2 B2- | BAGF G4 | F4 z2 A2 | A2 A2 G2 B2- | B2 A4 G2 | A4 z2 A2 | %33
w: * * te,|que du pro-|pos dont ie ca-|* * * * quet-|te, vous|n'en- ten diiez bien|_ le la-|tin, or,|
 AABA GF E2 | D4 B2 BB | A2 G2 G2 F2 | G2 d2 dded | cB A2 GBBB | A2 G2 G2 F2 | G4 B2 BB | %40
w: ten- dez donc vo- stre ia- quet-|te, pour re- cep-|voir ce pi- co-|tin, or, ten- dez donc vo-|stre ia- quet- te pour re- cep-|voir ce pi- co-|tin, pour re- cep-|
 A2 G2 G2 F2 | G8 |] %42
w: voir ce pi- co-|tin.|
V:2
 z8 | z2 A4 A2 | G2 F2 E2 D2 | C2 B,2 A,2 A2 | AA G2 F2 B2- | B2 G2 A4 | F4 F2 FG | A2 G2 FEDC | %8
w: |A l'en-|vers sur lict ou|cou- chet- te, vo-|lun- tiers vous tien- droys|_ seu- let-|te, vo- lun- tiers|vous tien- droys _ _ _|
w: ||||||||
 D2 E2 D4 | B,2 D2 DD G,2 | G2 BB A2 z2 | z2 A2 FFDA | GF E2 F2 FF | FFED A4 | z4 A2 AA | %15
w: _ seu- let-|te de- uis le soir|ius- qu'au- ma- tin,|de- puis je soir ius-|qy'au ma- tin à vous ma-|ni- er le te- tin,|a vous ma-|
w: |||||||
 BBAG FBAG | FGGF G4 | z8 | z2 B2 B2 A2 | F2 G2 A2 A2 | D2 B2 A2 G2 | F2 B2 B2 A2 | F2 ED A4 | %23
w: ni- er le te- tin, à vous ma-|ni- er le te- tin,||à vous ma-|ni- er le te-|tin, à vous ma-|ner le te- *|* * * tin,-|
w: ||||||||
 z2 A2 A2 A2 | A2 F2 G2 G2 | A2 F2 z2 F2 | F2 F2 G2 F2 | D2 E2 FEDC | B,6 A,G, | A,4 z2 F2 | %30
w: des- or- mais|n'es- tes si jeu-|net- te, que|du pro- pos dont|ie ca- quet- * * *||te, vous|
w: |||||||
 F2 F2 D3 C | DE F2 D4 | F2 FF FFFF | F2 GF BB A2 | FFFF G2 D2 | E2 C2 DA,A,A, | B,B, B,2 B,B,CB, | %37
w: n'en- ten diez bien|le- * la- tin,|or, ten- dez donc vo- stre ia-|quet- te, vo- stre ia- quet-|te, pour re- cep- voir ce|pi- co- tin, or, tendez donc|vo- stre ia- quet- te, vo- stre|
w: ||||||* * * * , * *|
 A,G, F,2 DGGG | E2 C2 D2 D2 | B,4 B,2 B,B, | E2 C2 D2 D2 | B,8 |] %42
w: ia- quet- te, pour re- cep- voir|voir, ce pi- co-|tin, pour re- cep-|voir ce pi- co-|tin.|
w: |||||
V:3
 g6 g2 | f6 e2 | d2 c2 B2 A2 | G2 d2 de f2 | f2 d4 _e2- | ed d4 c2 | d4 d2 de | f2 e2 dcBA | %8
w: A len-|vers sur|lict ou cou- chet-|te, vo- lun- tiers vous|tien- droys se-|* * let- *|te, vo- lun- tiers|vous tien- droys _ _ _|
 B2 c2 A4 | G4 d2 dd | G2 g2 f2 e2 | d2 z2 d2 dd | GdcB A4 | z8 | z4 d2 dd | Ggfe dgfe | dcBA G4 | %17
w: _ seu- let-|te, de- puis le|soir ius- su'au ma-|tin, de- puis le|soir ius- qu'au ma- tin,||à vous ma-|ni- er le te- tin, à vous ma-|ni- er le te- tin,|
 z8 | z2 g2 f2 e2 | d2 g2 g2 f2 | g4 z4 | z2 g2 f2 e2 | d2 g2 f2 e2 | d2 f2 f2 f2 | e2 d2 e2 ed | %25
w: |à vous ma-|ni- er le te-|tin,|à vous ma-|ni- er le te-|tin, des- ro- mais|n'es- tes si jeu- *|
 cB c2 B4 | z2 d2 d2 d2 | G2 c2 c2 BA | Bc d4 c2 | d2 z d d2 d2 | A2 d3 cBA | G2 A2 B4 | A4 z2 d2 | %33
w: * * net- te,|du pro- pos|dont ie ca- quet- *||te, vous nen- ten|diez _ _ _ _|_ le la-|tin, or,|
 dddd BB c2 | d4 B2 BB | c2 G2 A2 A2 | G2 g2 gggg | ee f2 gddd | c2 G2 A2 A2 | G4 d2 dd | %40
w: ten- dez vous vo- stre ia- quet-|te, pou re- cep-|voir ce pi- co-|tin, or, ten- dez donc vo-|stre ia- quet- te, pour re cep-|voir ce pi- co-|tin, pour re- cep-|
 c2 G2 A2 A2 | G8 |] %42
w: voir ce pi- co-|tin;|
V:4
 z8 | d4 d2 c2 | B2 A2 G2 F2 | E2 D2 D2 DE | F2 G2 D2 G2 | B4 A4 | z2 D2 DE F2 | F2 C2 F2 G2- | %8
w: |A len- vers|sue lict ou cou-|chet- te, vo- lun- tiers|vous tien droys se-|let- te,|vo- lun- tiers vous|tien- droys _ se-|
 G2 C2 D4 | z4 z2 d2 | dd G2 d2 c2 | B2 A2 z4 | z2 A2 AA D2 | d2 cB AdcB | AGFE D4 | z8 | %16
w: * let- te,|de-|puis le soir ius- qu'au|ma- tin,|de- uis le soir|ius- qu'au ma- tin, à vous ma-|ni- er le te- tin,||
 z4 d2 dd | AdcB A2 B2 | F2 G2 D2 A2 | B4 A4 | G4 z2 B2 | F2 G2 D2 A2 | B2 G2 A4 | z2 D2 DEFG | %24
w: de- puis le|soir ius- qu'au ma- tin, à|vous ma- ni er|le te-|tin, à|vous ma- ni- er|le te- tin,|des- ro- mais n'es- tes|
 A2 B2 G4 | F4 z2 B2 | B2 B2 G2 B2- | B2 A2 F2 G2- | GFED E4 |"^#" D4 z2 D2 | D2 D2 G4- | %31
w: si jeu- net-|te, que|du pro- pos dont|_ ie ca- quet-||te, vous|n'n ten- diez|
 G2 F2 G4 | D4 z2 D2 | DDGD GD A2 | D4 G2 GG | C2 E2 D2 D2 | G2 G2 GGcG |"^#" cG d2 GGGG | %38
w: _ la la-|tin, or,|ten- dez donc vo- stre ia- quet-|te, pour, re- cep-|voir ce pi- co-|tin, or, ten- dez donc vo-|stre ia- quet- te, pour re- cep-|
 C2 E2 D2 D2 | G4 G2 GG | C2 E2 D2 D2 | G8 |] %42
w: voir ce pi- co-|tin, pour re- cep-|voir ce pi- co-|tin,|

